!!!SOCIAL_FUNCTION:	bird dance songs
!!!PDT:	1932
!!!OTL: No_110_Song_in_the_Early_Morning_(b).krn
!!!REG: Southwest
!!!LANG: Non-Tone
!!!LING_GROUP: Yuman-Cochimi
**kern	**kern
*staff2	*staff1
=1-	=1-
*clefF4	*clefF4
*k[b-e-a-d-g-]	*k[b-e-a-d-g-]
*M2/4	*M2/4
2r	8.A-\L
.	16A-\Jk
.	4A-\
=2||	=2||
*M3/8	*M3/8
4.r	8A-\L
.	8B-\
.	8F\J
=3||	=3||
*M3/4	*M3/4
2.r	4A-\
.	4r
.	8.A-\L
.	16F\Jk
=4||	=4||
*M2/4	*M2/4
2r	8.A-\L
.	16A-\Jk
.	4A-\
=5	=5
2r	4r
.	8F\L
.	8F\J
=6||	=6||
*M3/4	*M3/4
2r	4A-\
.	4r
8.GG-/L	8.F\L
16GG-/Jk	16F\Jk
=7||	=7||
*M2/4	*M2/4
8.GG-/L	8.A-\L
16GG-/Jk	16A-\Jk
8.GG-/L	8.A-\L
16GG-/Jk	16F\Jk
=8||	=8||
*M3/8	*M3/8
8GG-/	8A-\L
8r	8B-\
8GG-/	8F\J
=9||	=9||
*M3/4	*M3/4
8GG-/	4A-\
16r	.
16GG-/	.
8GG-/	4r
8r	.
8.GG-/L	8.A-\L
16GG-/Jk	16F\Jk
=10||	=10||
*M2/4	*M2/4
8.GG-/L	8.A-\L
16GG-/Jk	16A-\Jk
4GG-/	4A-\
=11!|:	=11!|:
4r	4r
4r	8F\L
.	8F\J
=12||	=12||
*M3/4	*M3/4
4r	4A-\
4r	4r
8.GG-/L	8.F\L
16GG-/Jk	16F\Jk
=13||	=13||
*M2/4	*M2/4
8.GG-/L	8.A-\L
16GG-/Jk	16A-\Jk
8.GG-/L	8.A-\L
16GG-/Jk	16F\Jk
=14||	=14||
*M3/8	*M3/8
8GG-/	8A-\L
8r	8B-\
8GG-/	8F\J
=15||	=15||
*M3/4	*M3/4
8GG-/	4A-\
16r	.
16GG-/	.
8GG-/	4r
8r	.
8.GG-/L	8.A-\L
16GG-/Jk	16F\Jk
=16||	=16||
*M2/4	*M2/4
8.GG-/L	8.A-\L
16GG-/Jk	16A-\Jk
4GG-/	4A-\
=17:|!	=17:|!
2r	2r
=18	=18
2r	4r
.	8.A-\L
.	16e-\Jk
=19	=19
4GG-/	4e-\
4GG-/	4e-\
=20	=20
4GG-/	8d-\L
.	8e-\J
4GG-/	4d-\
=21||	=21||
*M3/8	*M3/8
8GG-/	8A-\L
8r	8d-\
8GG-/	8B-\J
=22||	=22||
*M3/4	*M3/4
4GG-/	4A-\
8GG-/L	8F\L
8GG-/J	8F\J
4r	4r
=23||	=23||
*M2/4	*M2/4
8.GG-/L	8.A-\L
16GG-/Jk	16F\Jk
8.GG-/L	8.A-\L
16GG-/Jk	16F\Jk
=24||	=24||
*M3/8	*M3/8
8GG-/	8A-\L
8r	8B-\
8GG-/	8F\J
=25||	=25||
*M3/4	*M3/4
8.GG-/L	4A-\
16GG-/Jk	.
8GG-/	4r
8r	.
8.GG-/L	8.A-\L
16GG-/Jk	16F\Jk
=26||	=26||
*M2/4	*M2/4
8.GG-/L	8.A-\L
16GG-/Jk	16A-\Jk
4GG-/	4A-\
=27	=27
4r	4r
4GG-/	8F\L
.	8F\J
=28||	=28||
*M3/4	*M3/4
8GG-/	4A-\
16r	.
16GG-/	.
8GG-/	4r
8r	.
8.GG-/L	8.F\L
16GG-/Jk	16F\Jk
=29||	=29||
*M2/4	*M2/4
8.GG-/L	8.A-\L
16GG-/Jk	16A-\Jk
8.GG-/L	8.A-\L
16GG-/Jk	16A-\Jk
=30||	=30||
*M3/8	*M3/8
8GG-/	8A-\L
8r	8B-\
8GG-/	8F\J
=31||	=31||
*M3/4	*M3/4
8.GG-/L	4A-\
16GG-/Jk	.
8GG-/	4r
8r	.
8.GG-/L	8.A-\L
16GG-/Jk	16F\Jk
=32||	=32||
*M2/4	*M2/4
8.GG-/L	8.A-\L
16GG-/Jk	16A-\Jk
4GG-/	4A-\
==	==
*-	*-
